X: 1
T: Glise \`a Sherbrooke
T: the Big Ship
R: reel
B: Kennedy
Z: 1997 by John Chambers <jc:trillian.mit.edu>
M: C|
L: 1/8
K: G
|: D2 \
| "G"G2GA BABc | d2dc B4 | "D7"c2cB A2A2 | "G"d2dc B2D2 | "G"G2GA BABc |
| d2dc B4 | "D7"c2cB AGFA | "G"G2B2 G2 :: Bd | "C"g2gf efge | "G"d2dc B4 |
| "D7"c2cB A2A2 | "G"d2dc B2d2 | "C"g2gf efge | "G"d2dc B4 | "D7"c2cB AGFA | "G"G2B2 G2 :|
